X: 7597
T:Polka () fr Finland
R:Polka
R:Schottische
O:Finland
M:4/4
K:Am
A2 | \
A2EA c2EA | c2B2 B^GEG | c2B2 B^GEG | B2A2 A4 :|
|:\
e2e2 f3e | e2d2 dcBc | d2d2 e3d | d2c2 cBA2 |\
A2EA c2EA | c2B2 B^GEG | c2B2 B^GEG | B2A2 A4:|
